Android/app/src/main/assets/www/icons/weapons/melee/kriegsbeil.svg

<svg width="512" height="512" viewBox="0 0 512 512" fill="none" xmlns="http://www.w3.org/2000/svg">
<g clip-path="url(#clip0_268_10732)">
<path d="M172.036 317.371L167.737 314.062C163.763 311.007 160.269 307.408 157.334 303.344L154.155 298.948L300.787 156.621C300.787 156.621 303.136 161.175 308.741 166.79C314.346 172.404 318.668 175.043 318.668 175.043L172.036 317.371Z" fill="#878787"/>
<path d="M326.54 174.911L325.615 174.359C320.888 171.569 316.497 168.245 312.653 164.339C312.213 163.885 311.761 163.419 311.321 162.966C307.557 159.008 304.352 154.533 301.691 149.711L301.167 148.77L380.548 71.7197C380.548 71.7197 390.241 73.6246 397.28 80.8762C404.319 88.1278 405.934 97.8736 405.934 97.8736L326.553 174.924L326.54 174.911Z" fill="#878787"/>
<path d="M68.1481 378.029L56.6041 389.234C58.8908 393.59 61.9099 398.167 65.8433 402.22C69.7767 406.272 74.301 409.466 78.6139 411.856L90.1578 400.651C85.8716 398.235 81.3862 395.081 77.4139 390.989C73.4417 386.896 70.4477 382.398 68.1481 378.029Z" fill="#878787"/>
<path d="M81.0518 365.504L69.5078 376.709C71.7945 381.065 74.8136 385.642 78.747 389.695C82.6804 393.747 87.2047 396.941 91.5176 399.331L103.062 388.126C98.7753 385.71 94.2898 382.556 90.3176 378.464C86.3454 374.371 83.3514 369.873 81.0518 365.504Z" fill="#878787"/>
<path d="M42.1675 403.246L30.4636 414.607C32.6385 418.528 35.4165 422.537 38.9229 426.149C43.3609 430.721 48.4211 434.094 53.1531 436.569L64.5238 425.532C60.0019 423.06 55.2425 419.784 51.0373 415.452C47.3239 411.626 44.4314 407.366 42.1675 403.246Z" fill="#878787"/>
<path d="M55.2444 390.553L43.5272 401.926C45.7645 406.072 48.6569 410.332 52.3704 414.158C56.5755 418.49 61.3612 421.767 65.8835 424.212L77.2542 413.175C72.9679 410.76 68.4825 407.606 64.5103 403.513C60.5381 399.421 57.5441 394.923 55.2444 390.553Z" fill="#878787"/>
<path d="M37.6032 427.43C34.0967 423.817 31.3184 419.835 29.1172 415.913L20.9591 423.832C18.9862 425.747 18.2637 428.39 19.2765 430.073L19.8917 431.107C23.8397 437.708 29.1575 443.187 35.6383 447.33L36.6534 447.976C38.306 449.038 40.9693 448.395 42.9422 446.48L51.8068 437.875C47.0751 435.375 42.0287 431.962 37.6165 427.417L37.6032 427.43Z" fill="#878787"/>
<path d="M93.9686 352.966L82.4247 364.171C84.7114 368.527 87.7305 373.104 91.6639 377.157C95.5973 381.209 100.122 384.403 104.434 386.793L115.978 375.588C111.692 373.172 107.207 370.018 103.234 365.926C99.2623 361.834 96.2683 357.335 93.9686 352.966Z" fill="#878787"/>
<path d="M107.272 340.053L95.728 351.258C98.0147 355.614 101.034 360.192 104.967 364.244C108.901 368.296 113.425 371.491 117.738 373.88L129.282 362.675C124.996 360.26 120.51 357.105 116.538 353.013C112.566 348.921 109.572 344.423 107.272 340.053Z" fill="#878787"/>
<path d="M120.576 327.14L109.032 338.345C111.319 342.701 114.338 347.279 118.271 351.331C122.205 355.384 126.729 358.578 131.042 360.967L142.586 349.762C138.299 347.347 133.814 344.193 129.842 340.1C125.87 336.008 122.876 331.51 120.576 327.14Z" fill="#878787"/>
<path d="M133.866 314.24L122.322 325.445C124.609 329.801 127.628 334.379 131.561 338.431C135.495 342.483 140.019 345.678 144.332 348.067L155.876 336.862C151.59 334.447 147.104 331.292 143.132 327.2C139.16 323.108 136.166 318.61 133.866 314.24Z" fill="#878787"/>
<path d="M144.878 325.531C148.85 329.624 153.335 332.778 157.648 335.167L166.659 326.421C169.019 324.131 169.514 320.906 167.696 319.434L162.803 315.459C160.077 313.238 157.644 310.732 155.505 307.941L151.678 302.931C150.274 301.084 147.023 301.469 144.663 303.759L135.639 312.519C137.926 316.875 140.945 321.453 144.878 325.505L144.878 325.531Z" fill="#878787"/>
<path d="M402.047 80.7816L420.727 78.2353L447.78 32.1976L400.944 57.8535L397.815 76.5277L402.034 80.7945L402.047 80.7816ZM404.328 59.9533L404.462 59.8239C407.122 62.0313 409.609 64.4068 412.069 66.8344C415.807 62.8438 421.32 57.8549 425.12 54.141C429.741 49.9402 434.442 44.7816 439.095 41.1199C430.46 50.1743 421.669 59.9752 412.711 68.7226L412.005 69.3821C409.357 66.3079 406.71 63.26 404.315 59.9663L404.328 59.9533Z" fill="white"/>
<path d="M345.714 100.405L354.417 92.0612L353.616 77.9003L310.484 55.1211L331.968 98.9129L345.714 100.405ZM335.561 82.6104C331.118 77.5257 321.591 67.9773 318.152 63.3674C324.148 69.1452 330.752 75.6022 336.734 81.4717C338.586 83.2729 340.438 85.074 342.197 86.9395C343.396 85.8275 344.821 84.5219 345.926 83.553C347.43 82.2485 348.947 80.9574 350.554 79.7333L350.684 79.8666C348.098 83.257 345.094 86.4572 342.223 89.5805C339.905 87.352 337.733 84.9812 335.574 82.6237L335.561 82.6104Z" fill="white"/>
<path d="M502.37 143.215C479.575 142.429 442.326 145.369 401.146 108.837L357.13 151.562C357.13 151.562 384.891 209.662 362.036 256.957C420.07 248.652 481.215 197.25 502.37 143.215ZM471.152 146.981C458.005 186.46 416.058 221.634 374.316 225.466C415.263 215.96 452.609 184.448 471.152 146.981Z" fill="white"/>
</g>
<defs>
<clipPath id="clip0_268_10732">
<rect width="512" height="512" fill="white"/>
</clipPath>
</defs>
</svg>

<svg xmlns="http://www.w3.org/2000/svg" width="512" height="512" fill="none" viewBox="0 0 512 512">
  <g clip-path="url(#a)">
    <path fill="#878787" d="m172.036 317.371-4.299-3.309a51.618 51.618 0 0 1-10.403-10.718l-3.179-4.396 146.632-142.327s2.349 4.554 7.954 10.169c5.605 5.614 9.927 8.253 9.927 8.253L172.036 317.371Zm154.504-142.46-.925-.552c-4.727-2.79-9.118-6.114-12.962-10.02l-1.332-1.373c-3.764-3.958-6.969-8.433-9.63-13.255l-.524-.941 79.381-77.05s9.693 1.905 16.732 9.156c7.039 7.252 8.654 16.998 8.654 16.998l-79.381 77.05-.013-.013ZM68.148 378.029l-11.543 11.205c2.286 4.356 5.305 8.933 9.239 12.986 3.933 4.052 8.457 7.246 12.77 9.636l11.544-11.205c-4.286-2.416-8.772-5.57-12.744-9.662-3.972-4.093-6.966-8.591-9.266-12.96Z"/>
    <path fill="#878787" d="m81.052 365.504-11.544 11.205c2.287 4.356 5.306 8.933 9.24 12.986 3.933 4.052 8.457 7.246 12.77 9.636l11.544-11.205c-4.286-2.416-8.772-5.57-12.744-9.662-3.972-4.093-6.966-8.591-9.266-12.96Zm-38.884 37.742-11.704 11.361c2.175 3.921 4.953 7.93 8.46 11.542 4.438 4.572 9.498 7.945 14.23 10.42l11.37-11.037c-4.522-2.472-9.28-5.748-13.486-10.08-3.713-3.826-6.606-8.086-8.87-12.206Z"/>
    <path fill="#878787" d="m55.245 390.553-11.718 11.373c2.238 4.146 5.13 8.406 8.844 12.232 4.205 4.332 8.99 7.609 13.513 10.054l11.37-11.037c-4.286-2.415-8.771-5.569-12.744-9.662-3.972-4.092-6.966-8.59-9.265-12.96ZM37.603 427.43c-3.506-3.613-6.284-7.595-8.486-11.517l-8.158 7.919c-1.972 1.915-2.695 4.558-1.682 6.241l.615 1.034A48.937 48.937 0 0 0 35.64 447.33l1.015.646c1.652 1.062 4.316.419 6.289-1.496l8.864-8.605c-4.732-2.5-9.778-5.913-14.19-10.458l-.014.013Zm56.367-74.464-11.545 11.205c2.287 4.356 5.306 8.933 9.24 12.986 3.933 4.052 8.457 7.246 12.77 9.636l11.544-11.205c-4.286-2.416-8.772-5.57-12.744-9.662-3.972-4.092-6.966-8.591-9.266-12.96Zm13.302-12.913-11.544 11.205c2.287 4.356 5.306 8.934 9.24 12.986 3.933 4.052 8.457 7.247 12.77 9.636l11.544-11.205c-4.286-2.415-8.771-5.57-12.744-9.662-3.972-4.092-6.966-8.59-9.266-12.96Zm13.304-12.913-11.544 11.205c2.287 4.356 5.306 8.934 9.239 12.986 3.934 4.053 8.458 7.247 12.771 9.636l11.544-11.205c-4.286-2.415-8.772-5.569-12.744-9.662-3.972-4.092-6.966-8.59-9.266-12.96Z"/>
    <path fill="#878787" d="m133.866 314.24-11.544 11.205c2.287 4.356 5.306 8.934 9.239 12.986 3.934 4.052 8.458 7.247 12.771 9.636l11.544-11.205c-4.286-2.415-8.772-5.57-12.744-9.662-3.972-4.092-6.966-8.59-9.266-12.96Zm11.012 11.291c3.972 4.093 8.458 7.247 12.771 9.636l9.011-8.746c2.359-2.29 2.854-5.515 1.037-6.987l-4.894-3.975a44.872 44.872 0 0 1-7.297-7.518l-3.828-5.01c-1.404-1.847-4.655-1.462-7.014.828l-9.025 8.76c2.287 4.356 5.306 8.934 9.239 12.986v.026Z"/>
    <path fill="#fff" d="m402.048 80.782 18.68-2.547 27.052-46.037-46.836 25.655-3.129 18.675 4.219 4.266.014-.012Zm2.281-20.829.133-.13c2.66 2.208 5.147 4.584 7.607 7.011 3.738-3.99 9.251-8.98 13.051-12.693 4.621-4.2 9.322-9.36 13.975-13.021-8.635 9.054-17.425 18.855-26.384 27.603l-.706.66c-2.648-3.075-5.295-6.123-7.69-9.417l.014-.013Zm-58.615 40.452 8.703-8.344-.801-14.16-43.132-22.78 21.484 43.792 13.746 1.492ZM335.561 82.61c-4.444-5.084-13.97-14.633-17.409-19.243 5.996 5.778 12.6 12.235 18.582 18.105 1.852 1.8 3.704 3.602 5.463 5.468a197.783 197.783 0 0 1 3.729-3.387c1.503-1.304 3.02-2.596 4.628-3.82l.13.134c-2.586 3.39-5.59 6.59-8.461 9.713-2.318-2.228-4.49-4.599-6.649-6.956l-.013-.014Zm166.809 60.605c-22.794-.786-60.043 2.154-101.224-34.378l-44.016 42.725s27.761 58.1 4.907 105.395c58.033-8.305 119.179-59.707 140.333-113.742Zm-31.218 3.766c-13.147 39.479-55.094 74.653-96.836 78.485 40.947-9.506 78.293-41.018 96.836-78.485Z"/>
  </g>
  <defs>
    <clipPath id="a">
      <path fill="#fff" d="M0 0h512v512H0z"/>
    </clipPath>
  </defs>
</svg>
